img-copy/clock.svg

<svg width="68" height="70" viewBox="0 0 68 70" fill="none" xmlns="http://www.w3.org/2000/svg">
<path d="M67.4614 33.4715C67.4576 14.9819 52.4656 -0.00373771 33.9754 6.99302e-07C15.4858 0.00373911 0.500169 14.9963 0.503907 33.4859C0.507111 48.0502 9.92522 60.9413 23.7995 65.3713C23.9319 65.413 24.0697 65.4343 24.2081 65.4338C24.4719 65.4333 24.7304 65.3628 24.9573 65.2287C25.2527 65.0541 25.4732 64.7764 25.5768 64.449L34.0315 37.6521C36.3429 37.6404 38.2068 35.7568 38.1945 33.4459C38.1827 31.1345 36.2997 29.2706 33.9883 29.2824C33.3666 29.285 32.753 29.4282 32.1944 29.7011L21.0251 18.5302C20.4707 17.9951 19.5879 18.0106 19.0528 18.5644C18.5305 19.1054 18.5305 19.962 19.0528 20.503L30.2162 31.6792C29.3596 33.4277 29.8493 35.5383 31.3895 36.7303L23.3338 62.2647C7.41354 56.4002 -0.738311 38.7405 5.12618 22.8203C10.9907 6.90002 28.6503 -1.25183 44.5706 4.61266C60.4909 10.4771 68.6427 28.1374 62.7782 44.0571C59.913 51.8351 54.0261 58.1252 46.4548 61.4989L45.5842 57.3989C45.4251 56.6454 44.6844 56.1636 43.9308 56.3233C43.6931 56.3741 43.4726 56.4857 43.291 56.6475L34.8978 64.1409C34.322 64.653 34.2708 65.5347 34.7835 66.1105C34.9501 66.2974 35.1637 66.4362 35.403 66.5126L46.1188 69.9327C46.8521 70.1682 47.6377 69.765 47.8732 69.0312C47.948 68.7994 47.9603 68.5527 47.9101 68.3145L47.0545 64.2915C59.4452 59.0678 67.4902 46.918 67.4614 33.4715ZM33.9829 32.0766C34.753 32.0766 35.3779 32.7014 35.3779 33.4715C35.3779 34.2422 34.753 34.8665 33.9829 34.8665C33.2123 34.8665 32.588 34.2422 32.588 33.4715C32.588 32.7014 33.2123 32.0766 33.9829 32.0766ZM38.5774 64.5916L43.3551 60.3298L44.6737 66.543L38.5774 64.5916Z" fill="#212121"/>
</svg>

<svg fill="none" xmlns="http://www.w3.org/2000/svg" viewBox="0 0 68 70"><path d="M67.461 33.471C67.458 14.982 52.466-.004 33.975 0 15.485.004.5 14.996.504 33.486A33.479 33.479 0 0023.799 65.37c.133.042.27.063.41.063.263 0 .521-.071.748-.205.296-.175.516-.453.62-.78l8.454-26.797a4.184 4.184 0 10-1.837-7.95L21.025 18.53a1.395 1.395 0 00-1.972 1.973l11.163 11.176a4.104 4.104 0 001.174 5.051l-8.056 25.535C7.414 56.4-.738 38.74 5.126 22.82 10.991 6.9 28.65-1.252 44.571 4.613c15.92 5.864 24.072 23.524 18.207 39.444A30.72 30.72 0 0146.455 61.5l-.87-4.1a1.394 1.394 0 00-2.294-.752l-8.393 7.494a1.394 1.394 0 00.505 2.372l10.716 3.42a1.394 1.394 0 001.791-1.619l-.855-4.022a33.37 33.37 0 0020.406-30.82zm-33.478-1.394a1.395 1.395 0 110 2.79 1.395 1.395 0 010-2.79zm4.594 32.515l4.778-4.262 1.319 6.213-6.097-1.951z" fill="#212121"/></svg>
